outputs/icons/people/person_swap_round.svg

<svg xmlns="http://www.w3.org/2000/svg" width="1200" height="1200" fill="none"><path fill="#000" d="M824.5 775v-57.235c0-11.15-13.49-16.72-21.355-8.825L762.25 750l-53.465 53.68c-4.855 4.875-4.855 12.765 0 17.64L804 916.915c7.55 7.585 20.5 2.235 20.5-8.47V850h236.925c21.305 0 38.575-17.27 38.575-38.575 0-21.44-17.485-38.765-38.925-38.57zm151 212.5h-238c-20.71 0-37.5 16.79-37.5 37.5s16.79 37.5 37.5 37.5h238v57.235c0 11.15 13.49 16.72 21.355 8.825l94.36-94.74c4.855-4.875 4.855-12.765 0-17.64l-94.36-94.74c-7.865-7.895-21.355-2.325-21.355 8.825zM475 275c55 0 100-45 100-100S530 75 475 75s-100 45-100 100 45 100 100 100M287.5 445l-125.414 643.03c-6.264 32.115 18.33 61.97 51.05 61.97 24.442 0 45.587-17.02 50.81-40.895L342.5 750 450 850v250c0 27.615 22.386 50 50 50s50-22.385 50-50V782.855a25 25 0 0 0-7.32-17.675L447.5 670l30-150c54.995 67.685 133.25 113.895 222.66 126.52C727.5 650.38 750 627.615 750 600s-22.605-49.48-49.68-54.915c-71.09-14.26-131.105-58.434-167.82-117.585l-47.5-80c-17.5-30-50-47.5-85-47.5q-18.75 0-37.5 7.5L115.525 408.642A25 25 0 0 0 100 431.777V600c0 27.615 22.386 50 50 50s50-22.385 50-50V482.5z"/></svg>

<svg width="1200" height="1200" viewBox="0 0 1200 1200" fill="none" xmlns="http://www.w3.org/2000/svg"><path d="M824.5 775V717.765C824.5 706.615 811.01 701.045 803.145 708.94L762.25 750L708.785 803.68C703.93 808.555 703.93 816.445 708.785 821.32L804 916.915C811.55 924.5 824.5 919.15 824.5 908.445V850H1061.425C1082.73 850 1100 832.73 1100 811.425C1100 789.985 1082.515 772.66 1061.075 772.855L824.5 775ZM975.5 987.5H737.5C716.79 987.5 700 1004.29 700 1025C700 1045.71 716.79 1062.5 737.5 1062.5H975.5V1119.735C975.5 1130.885 988.99 1136.455 996.855 1128.56L1091.215 1033.82C1096.07 1028.945 1096.07 1021.055 1091.215 1016.18L996.855 921.44C988.99 913.545 975.5 919.115 975.5 930.265V987.5ZM475 275C530 275 575 230 575 175C575 120 530 75 475 75C420 75 375 120 375 175C375 230 420 275 475 275ZM287.5 445L162.086 1088.03C155.822 1120.145 180.416 1150 213.136 1150C237.578 1150 258.723 1132.98 263.946 1109.105L342.5 750L450 850V1100C450 1127.615 472.386 1150 500 1150C527.615 1150 550 1127.615 550 1100V782.855C550 776.225 547.365 769.865 542.68 765.18L447.5 670L477.5 520C532.495 587.685 610.75 633.895 700.16 646.52C727.5 650.38 750 627.615 750 600C750 572.385 727.395 550.52 700.32 545.085C629.23 530.825 569.215 486.651 532.5 427.5L485 347.5C467.5 317.5 435 300 400 300C387.5 300 375 302.5 362.5 307.5L115.525 408.642C106.135 412.488 100 421.629 100 431.777V600C100 627.615 122.386 650 150 650C177.614 650 200 627.615 200 600V482.5L287.5 445Z" fill="black"/></svg>
